X:7929
T:N\aar v\aaren \aander
C:anon.
O:Norway
Z:Transcribed by Frank Nordberg - http://www.musicaviva.com
F:http://abc.musicaviva.com/tunes/norway/nar-varen-ander/nar-varen-ander-1.abc
M:3/4
L:1/8
K:F
zc|"F"c>c c2 A>c|"C7"B>B "F"A2 zc|
"Bb"B>d "F/C"d>c "C"c>E|"C7"G2 "F"F2 :|
|:zF|"C"E>F G>G "F/C"A>c|"C"B>B "F"A2:|
c2|"C"B>B "F"A2 c2|"C"B>B "F"A2 zc|
"Bb"B>d "F/G"d>c "C"c>E|"C7"G2 "F"F2|]
W:
W:
W:  From Musica Viva - http://www.musicaviva.com
W:  the Internet center for free sheet music downloads.
